X:1
T:Cold Harbor
M:C|
L:1/8
R:march
K:Dm
C:Rob Lindauer
N:I had been reading about the battle of Cold Harbor in Jeff Shaara's "Last
N:Full Measure" when I wrote this tune -RL
N:October 6, 2001
|:DE|"Dm"F2 GF "Am"ED C2|"Dm"D2 [A,2D2] [A,2D2] DE|
"Dm"FE DE FE FG|"A"A2 [E2A2] [E2A2] FG|
"Dm"A2 GF "Am"E2 FG|"Bb"FE D2 "Am" C2 B,2|
"Dm"A,C DE FE DC|"Dm"D2 [A,2D2] [A,2D2]:||:A2|
"Dm"d2 AG F2 ED|"A"E2 [C2E2] [C2E2] FE|
"Gm"DC DE FE FG|"A"A2 [A,2E2A2] [A,2E2A2] Bd|
"F"c2 BA "C" G2 FG|"Bb"GA FD "Am"E2 FG|
"Dm"A2 D2 CD EC|"Dm"D2 [A,2D2] [A,2D2]:|]
